src/assets/images/bvr.svg

<svg width="226" height="226" viewBox="0 0 226 226" fill="none" xmlns="http://www.w3.org/2000/svg">
    <path
        d="M201.333 78.7263L201.333 78.7262C179.176 53.2123 142.508 49.5465 119.432 70.5383L67.7316 117.569C44.6556 138.561 43.9105 176.261 66.0673 201.775L66.0674 201.775C88.2242 227.289 124.893 230.954 147.969 209.963L199.669 162.932C222.745 141.94 223.49 104.24 201.333 78.7263Z"
        fill="#FF001D" />
    <path
        d="M65.7874 179.457C99.0317 179.457 127.834 152.559 127.834 118.236C127.834 83.9126 101.81 56.0879 68.5657 56.0879C35.3211 56.0879 8.37109 83.9126 8.37109 118.236C8.37109 152.559 32.5429 179.457 65.7874 179.457Z"
        fill="#6DDCE5" />
    <path fill-rule="evenodd" clip-rule="evenodd"
        d="M127.834 118.236C127.834 152.559 99.0316 179.456 65.7873 179.456C61.2791 179.456 56.9378 178.962 52.8009 178.021C46.0923 156.393 51.1399 132.663 67.7313 117.57L112.756 76.6118C122.172 87.6297 127.834 102.226 127.834 118.236Z"
        fill="#6B289B" />
    <path fill-rule="evenodd" clip-rule="evenodd"
        d="M114.573 52.3052C114.573 52.3052 60.5307 57.9991 61.4781 1.05966L114.573 52.3052ZM114.573 52.3052C114.573 52.3052 117.417 0.110626 61.4781 1.05966L114.573 52.3052Z"
        fill="#7FD44A" />
</svg>

<svg width="226" height="226" fill="none" xmlns="http://www.w3.org/2000/svg"><path d="M201.333 78.726c-22.157-25.514-58.825-29.18-81.901-8.188l-51.7 47.031c-23.076 20.992-23.822 58.692-1.665 84.206 22.157 25.514 58.826 29.179 81.902 8.188l51.7-47.031c23.076-20.992 23.821-58.692 1.664-84.206z" fill="#FF001D"/><path d="M65.787 179.457c33.245 0 62.047-26.898 62.047-61.221 0-34.323-26.024-62.148-59.268-62.148-33.245 0-60.195 27.825-60.195 62.148 0 34.323 24.172 61.221 57.416 61.221z" fill="#6DDCE5"/><path fill-rule="evenodd" clip-rule="evenodd" d="M127.834 118.236c0 34.323-28.802 61.22-62.047 61.22-4.508 0-8.85-.494-12.986-1.435-6.709-21.628-1.661-45.358 14.93-60.451l45.025-40.958c9.416 11.018 15.078 25.614 15.078 41.624z" fill="#6B289B"/><path fill-rule="evenodd" clip-rule="evenodd" d="M114.573 52.305S60.531 58 61.478 1.06l53.095 51.245zm0 0S117.417.111 61.478 1.06l53.095 51.245z" fill="#7FD44A"/></svg>
